frontend/src/assets/fiche/ComponentLecteur.svg

<svg width="72" height="70" viewBox="0 0 72 70" fill="none" xmlns="http://www.w3.org/2000/svg">
<path d="M70.5 35C70.5 53.462 55.0939 68.5 36 68.5C16.9061 68.5 1.5 53.462 1.5 35C1.5 16.538 16.9061 1.5 36 1.5C55.0939 1.5 70.5 16.538 70.5 35Z" stroke="black" stroke-width="3"/>
<path d="M46.935 30.7549L29.55 21.6049C25.425 19.4299 20.94 23.8249 23.025 27.9949L25.455 32.8549C26.13 34.2049 26.13 35.7949 25.455 37.1449L23.025 42.0049C20.94 46.1749 25.425 50.5549 29.55 48.3949L46.935 39.2449C50.355 37.4449 50.355 32.5549 46.935 30.7549Z" stroke="black" stroke-width="1.5" stroke-linecap="round" stroke-linejoin="round"/>
</svg>

<svg id="eBxyHahl9zI1" xmlns="http://www.w3.org/2000/svg" xmlns:xlink="http://www.w3.org/1999/xlink" viewBox="0 0 72 70" shape-rendering="geometricPrecision" text-rendering="geometricPrecision"><path d="M70.5,35c0,18.462-15.4061,33.5-34.5,33.5s-34.5-15.038-34.5-33.5s15.4061-33.5,34.5-33.5s34.5,15.038,34.5,33.5Z" fill="#f5f5f5" stroke="#000" stroke-width="3"/><path d="M46.935,30.7549l-17.385-9.15c-4.125-2.175-8.61,2.22-6.525,6.39l2.43,4.86c.675,1.35.675,2.94,0,4.29l-2.43,4.86c-2.085,4.17,2.4,8.55,6.525,6.39l17.385-9.15c3.42-1.8,3.42-6.69,0-8.49Z" fill="#e66d38" stroke="#000" stroke-width="1.5" stroke-linecap="round" stroke-linejoin="round"/></svg>
